packages/foundations/assets/icons/functional/images/maps/map_pin_14_filled.svg

<svg width="14" height="14" viewBox="0 0 14 14" fill="none" xmlns="http://www.w3.org/2000/svg">
<g clip-path="url(#clip0_2213_5502)">
<path fill-rule="evenodd" clip-rule="evenodd" d="M6.99995 1.25641C9.49037 1.25641 11.3076 3.11862 11.3076 5.5641C11.3076 6.55128 10.8813 7.6506 10.0512 8.83974L7.58329 12.4295C7.44867 12.6314 7.24678 12.7436 6.99995 12.7436C6.75312 12.7436 6.55123 12.6314 6.41662 12.4295L3.94867 8.83974C3.11858 7.6282 2.69226 6.55128 2.69226 5.5641C2.69226 3.1859 4.44226 1.25641 6.99995 1.25641ZM6.99995 4.1282C6.21466 4.1282 5.56406 4.77881 5.56406 5.5641C5.56406 6.34939 6.21466 7 6.99995 7C7.78525 7 8.43585 6.34939 8.43585 5.5641C8.43585 4.77881 7.78525 4.1282 6.99995 4.1282Z" fill="#1A1C1F"/>
</g>
<defs>
<clipPath id="clip0_2213_5502">
<rect width="14" height="14" fill="white"/>
</clipPath>
</defs>
</svg>

<svg xmlns="http://www.w3.org/2000/svg" width="14" height="14" fill="none"><g clip-path="url(#a)"><path fill="#1A1C1F" fill-rule="evenodd" d="M7 1.256c2.49 0 4.308 1.863 4.308 4.308 0 .987-.427 2.087-1.257 3.276l-2.468 3.59a.68.68 0 0 1-.583.314.68.68 0 0 1-.583-.314L3.949 8.84c-.83-1.212-1.257-2.289-1.257-3.276 0-2.378 1.75-4.308 4.308-4.308m0 2.872c-.785 0-1.436.65-1.436 1.436S6.214 7 7 7s1.436-.65 1.436-1.436S7.786 4.128 7 4.128" clip-rule="evenodd"/></g><defs><clipPath id="a"><path fill="#fff" d="M0 0h14v14H0z"/></clipPath></defs></svg>
